X:101
T: Raumensattel (Bentzenawer - Ton)
N: Q0027
O: Mitteleuropa, Deutschland
N: Kleinere Melodievariante aus anderer Quelle abgedruckt.
R: Ballade, Gefangenschaft, Hinrichtung, Tod, Vergeltung
M: none
L: 1/8
K: F
F2 | c2c2d2e2 | f4f4
f4 | c2f4e2d4 | c4z6
F2 | c2c2d2e2 | f4f4
f4 | c2f4e2d4 | c4z4
f4 | f3ed2c2 | A4F4z2
F2 | c3de2f2d4 | c4z4
f4 | f3ed2c2 | A4F4
c4 | d2c3AB2G4 | F4z6

